src/components/footer/images/logoFooter.svg

<svg width="141" height="58" viewBox="0 0 141 58" fill="none" xmlns="http://www.w3.org/2000/svg">
<g opacity="0.7">
<path d="M25.4525 24.8813H37.4122V24.8672C37.4122 18.4494 32.0759 13.2446 25.4959 13.2446C18.9159 13.2446 13.5796 18.4494 13.5796 24.8672C13.5796 31.2568 18.887 36.4474 25.438 36.4756V24.8813H25.4525Z" fill="white"/>
<path d="M50.8466 24.7965C50.8466 18.1672 48.2001 11.9469 43.3989 7.26404C38.5977 2.5812 32.2346 0.0141049 25.4521 0V2.52478C38.0337 2.53889 48.258 12.5252 48.258 24.7965C48.258 24.8247 48.258 24.8529 48.258 24.8811H50.8321C50.8321 24.8529 50.8466 24.8247 50.8466 24.7965Z" fill="white"/>
<path d="M25.4234 47.0682C12.8418 47.0682 2.58861 37.0819 2.58861 24.8107H0C0 31.4259 2.64646 37.6602 7.44769 42.3289C12.2489 47.0117 18.6265 49.5929 25.4234 49.5929C25.4378 49.5929 25.4523 49.5929 25.4523 49.5929V47.0682C25.4378 47.0682 25.4234 47.0682 25.4234 47.0682Z" fill="white"/>
<path d="M53.8549 24.8809H50.8324C50.8035 31.4678 48.1715 37.6739 43.3847 42.3285C38.598 46.9972 32.2204 49.5784 25.438 49.5925V57.1808H53.8404V24.8809H53.8549Z" fill="white"/>
<path d="M41.5769 24.8813C41.5769 33.5276 34.3606 40.58 25.4812 40.58C16.6018 40.58 9.38549 33.5417 9.38549 24.8813C9.38549 16.2351 16.5873 9.19676 25.4523 9.18265V6.65788C20.4775 6.65788 15.792 8.56204 12.2633 11.9895C8.73472 15.4311 6.79688 20.0011 6.79688 24.8813C6.79688 29.7616 8.73472 34.3316 12.2633 37.7732C15.792 41.2148 20.4775 43.1048 25.4812 43.1048C30.4849 43.1048 35.1704 41.2148 38.699 37.7732C42.2276 34.3316 44.1655 29.7616 44.1655 24.8955H41.5769V24.8813Z" fill="white"/>
<path d="M55.6768 52.9918V29.0137H65.9878V32.0885H60.1598V38.9857H64.7441V42.0324H60.1598V49.9593H66.0457V52.9918H55.6768Z" fill="white"/>
<path d="M74.6505 53.3168C72.8428 53.3168 71.44 52.9783 70.4132 52.2872C69.3865 51.596 68.6778 50.651 68.2729 49.4662C67.868 48.2673 67.6655 46.8991 67.6655 45.3335V36.7718C67.6655 35.1357 67.868 33.7111 68.2729 32.5122C68.6778 31.3132 69.3865 30.3823 70.4132 29.7335C71.44 29.0847 72.8428 28.7603 74.6505 28.7603C76.3425 28.7603 77.6729 29.0424 78.6418 29.6066C79.5963 30.1708 80.2904 30.9747 80.6954 32.0185C81.1003 33.0622 81.3028 34.2753 81.3028 35.6575V37.6745H76.9932V35.6011C76.9932 34.9241 76.9643 34.3176 76.892 33.7675C76.8197 33.2174 76.6317 32.7801 76.3135 32.4557C75.9954 32.1313 75.4603 31.9621 74.6938 31.9621C73.9274 31.9621 73.3634 32.1313 73.0163 32.4839C72.6692 32.8225 72.4378 33.2879 72.3366 33.8803C72.2354 34.4586 72.192 35.1216 72.192 35.855V46.2785C72.192 47.153 72.2643 47.8582 72.4089 48.4224C72.5535 48.9866 72.8138 49.4098 73.1898 49.6919C73.5658 49.974 74.072 50.115 74.7228 50.115C75.4748 50.115 75.9954 49.9457 76.3135 49.5931C76.6317 49.2546 76.8197 48.7892 76.9064 48.2109C76.9932 47.6326 77.0221 46.9978 77.0221 46.2926V44.1063H81.3317V46.0246C81.3317 47.4492 81.1437 48.7045 80.7532 49.8047C80.3628 50.9049 79.6975 51.7512 78.7286 52.3859C77.7308 53.0065 76.3858 53.3168 74.6505 53.3168Z" fill="white"/>
<path d="M90.3262 53.3164C88.5908 53.3164 87.2025 53.0061 86.1757 52.3714C85.1489 51.7367 84.4114 50.834 83.9631 49.6492C83.5148 48.4644 83.2979 47.0681 83.2979 45.4461V36.4755C83.2979 34.8535 83.5148 33.4712 83.9631 32.3146C84.4114 31.1581 85.1489 30.2836 86.1757 29.663C87.2025 29.0565 88.5908 28.7462 90.3262 28.7462C92.1049 28.7462 93.5077 29.0565 94.5345 29.663C95.5612 30.2695 96.2988 31.1581 96.7471 32.3146C97.1954 33.4712 97.4268 34.8535 97.4268 36.4755V45.4743C97.4268 47.0681 97.1954 48.4645 96.7471 49.6351C96.2988 50.8058 95.5468 51.7226 94.5345 52.3573C93.5077 52.992 92.1049 53.3164 90.3262 53.3164ZM90.3262 50.0865C91.0782 50.0865 91.6277 49.9313 91.9748 49.6069C92.3218 49.2966 92.5677 48.8594 92.6834 48.3093C92.7991 47.7592 92.8714 47.1527 92.8714 46.5039V35.46C92.8714 34.783 92.8135 34.1906 92.6834 33.6546C92.5532 33.1186 92.3218 32.7096 91.9748 32.3993C91.6277 32.089 91.0637 31.9338 90.3262 31.9338C89.6175 31.9338 89.0825 32.089 88.7209 32.3993C88.3594 32.7096 88.1135 33.1186 87.9978 33.6546C87.8822 34.1906 87.8099 34.783 87.8099 35.46V46.5039C87.8099 47.1527 87.8677 47.7592 87.9834 48.3093C88.0991 48.8594 88.3305 49.2966 88.692 49.6069C89.0535 49.9313 89.6031 50.0865 90.3262 50.0865Z" fill="white"/>
<path d="M100.016 52.9918V29.0137H104.514V49.9734H110.457V52.9918H100.016Z" fill="white"/>
<path d="M110.819 52.9918L115.736 29.0137H120.537L125.454 52.9918H121.303L120.335 47.4627H116.054L115.056 52.9918H110.819ZM116.488 44.67H119.828L118.165 34.6133L116.488 44.67Z" fill="white"/>
<path d="M126.986 52.9921V29.0137H132.872C134.535 29.0137 135.938 29.2111 137.08 29.592C138.223 29.9728 139.091 30.6357 139.684 31.5667C140.276 32.4976 140.58 33.7529 140.58 35.3609C140.58 36.3341 140.493 37.1945 140.305 37.9703C140.117 38.7461 139.814 39.3949 139.38 39.945C138.946 40.481 138.339 40.9041 137.572 41.2004L141 53.0062H136.502L133.523 42.0325H131.455V52.9921H126.986ZM131.469 39.2539H132.872C133.74 39.2539 134.434 39.1269 134.955 38.8871C135.475 38.6474 135.837 38.2524 136.068 37.7023C136.285 37.1663 136.401 36.4611 136.401 35.6148C136.401 34.4159 136.169 33.5132 135.721 32.9066C135.273 32.3001 134.405 32.0039 133.132 32.0039H131.498V39.2539H131.469Z" fill="white"/>
</g>
</svg>

<svg width="141" height="58" fill="none" xmlns="http://www.w3.org/2000/svg"><g opacity=".7" fill="#fff"><path d="M25.453 24.881h11.96v-.014c0-6.418-5.337-11.622-11.917-11.622S13.58 18.449 13.58 24.867c0 6.39 5.307 11.58 11.858 11.609V24.88h.015zM50.847 24.797c0-6.63-2.647-12.85-7.448-17.533C38.598 2.581 32.235.014 25.452 0v2.525c12.582.014 22.806 10 22.806 22.272v.084h2.574c0-.028.015-.056.015-.084zM25.423 47.068c-12.581 0-22.834-9.986-22.834-22.257H0c0 6.615 2.646 12.85 7.448 17.518 4.8 4.683 11.178 7.264 17.975 7.264h.03v-2.525h-.03z"/><path d="M53.855 24.88h-3.023c-.029 6.588-2.66 12.794-7.447 17.448-4.787 4.67-11.165 7.25-17.947 7.264v7.589H53.84v-32.3h.015z"/><path d="M41.577 24.881c0 8.647-7.216 15.699-16.096 15.699-8.88 0-16.096-7.038-16.096-15.699 0-8.646 7.202-15.684 16.067-15.698V6.658c-4.975 0-9.66 1.904-13.189 5.331-3.528 3.442-5.466 8.012-5.466 12.892 0 4.88 1.938 9.45 5.466 12.892 3.529 3.442 8.214 5.332 13.218 5.332s9.69-1.89 13.218-5.332c3.529-3.441 5.467-8.011 5.467-12.878h-2.59v-.014zM55.677 52.992V29.014h10.31v3.075H60.16v6.897h4.584v3.046H60.16v7.927h5.886v3.033h-10.37zM74.65 53.317c-1.807 0-3.21-.339-4.237-1.03-1.026-.691-1.735-1.636-2.14-2.82-.405-1.2-.608-2.568-.608-4.133v-8.562c0-1.636.203-3.06.608-4.26.405-1.199 1.114-2.13 2.14-2.779 1.027-.648 2.43-.973 4.237-.973 1.692 0 3.023.282 3.992.847a4.723 4.723 0 012.053 2.412c.405 1.043.608 2.256.608 3.639v2.017h-4.31V35.6c0-.677-.029-1.283-.101-1.834-.072-.55-.26-.987-.578-1.311-.319-.325-.854-.494-1.62-.494-.767 0-1.33.17-1.678.522-.347.338-.578.804-.68 1.396-.1.579-.144 1.242-.144 1.975v10.424c0 .874.072 1.58.217 2.143.144.565.405.988.78 1.27.377.282.883.423 1.534.423.752 0 1.272-.17 1.59-.522.319-.338.507-.804.593-1.382.087-.578.116-1.213.116-1.918v-2.187h4.31v1.919c0 1.424-.188 2.68-.579 3.78a4.97 4.97 0 01-2.024 2.58c-.998.622-2.343.932-4.079.932zM90.326 53.316c-1.735 0-3.123-.31-4.15-.945-1.027-.634-1.765-1.537-2.213-2.722-.448-1.185-.665-2.58-.665-4.203v-8.97c0-1.623.217-3.005.665-4.161.448-1.157 1.186-2.031 2.213-2.652 1.026-.607 2.415-.917 4.15-.917 1.779 0 3.182.31 4.209.917 1.026.607 1.764 1.495 2.212 2.652.448 1.156.68 2.538.68 4.16v9c0 1.593-.232 2.99-.68 4.16-.448 1.17-1.2 2.088-2.213 2.722-1.026.635-2.43.96-4.208.96zm0-3.23c.752 0 1.302-.155 1.649-.48.347-.31.593-.747.708-1.297.116-.55.188-1.156.188-1.805V35.46c0-.677-.057-1.27-.188-1.805-.13-.536-.361-.945-.708-1.256-.347-.31-.911-.465-1.649-.465-.708 0-1.243.155-1.605.465-.362.31-.608.72-.723 1.256a8.476 8.476 0 00-.188 1.805v11.044c0 .649.058 1.255.173 1.805.116.55.347.988.709 1.298.362.324.911.48 1.634.48zM100.016 52.992V29.014h4.498v20.96h5.943v3.018h-10.441zM110.819 52.992l4.917-23.978h4.801l4.917 23.978h-4.151l-.968-5.53h-4.281l-.998 5.53h-4.237zm5.669-8.322h3.34l-1.663-10.057-1.677 10.057zM126.986 52.992V29.014h5.886c1.663 0 3.066.197 4.208.578 1.143.38 2.011 1.044 2.604 1.975.592.93.896 2.186.896 3.794 0 .973-.087 1.834-.275 2.61-.188.775-.491 1.424-.925 1.974-.434.536-1.041.96-1.808 1.255L141 53.006h-4.498l-2.979-10.974h-2.068v10.96h-4.469zm4.483-13.738h1.403c.868 0 1.562-.127 2.083-.367.52-.24.882-.635 1.113-1.185.217-.536.333-1.24.333-2.087 0-1.2-.232-2.102-.68-2.708-.448-.607-1.316-.903-2.589-.903h-1.634v7.25h-.029z"/></g></svg>
